X:17
T: SAUSE KINGCHE SAUSE
N: K0056
O: Europa, Mitteleuropa, Deutschland, Darmstadt, Hopfgarten
R: Kinder -, Wiegen - Lied
M: 2/4
L: 1/16
K: G
 | d3cB2A2 | G4D2z2 |
d3cB2A2 | G4D2z2 |
G2G2A2d2 | B2B2A4 |
G2G2A2d2 | B2B2A4 |
d3cB2A2 | G4D2z2

@@@ Tune index: 7354
